X: 26514
T: Michael Russell's
R: slide
M: 12/8
K: Dmajor
|:A2A A2A ABA F2E|DFA{d} B2A {d} B2A F2A|
dcd a2=g f2d {d}B2A|1 BdA BAB d3 dcB:|2 BdA BAB d3 d2A||
|:dcd a2=g f2d{d}B2A|BdA BdA{d}B2A F2A|
dcd a2=g f2d{d}B2A|1 BdA BAB d3 d2A:|2 BdA BAB d3 dcB||

